X:1
T:From Far Away
T:From Far Away
T:John Bacchus Dykes (1823–1876)
T:William Morris (1834–1896)
T:Public Domain Courtesy of the Cyber Hymnal™
T:Public Domain Courtesy of the Cyber Hymnal™
C:John Bacchus Dykes (1823–1876)
Z:Public Domain
Z:Courtesy of the Cyber Hymnal™
%%score ( 1 2 ) ( 3 4 )
L:1/8
Q:1/4=90
M:6/8
K:Bb
V:1 treble 
V:2 treble 
V:3 bass 
V:4 bass 
V:1
"^Lively" F | F2 [FB] [Fd][Fd] (d/c/) | ([GB][FA])[EG] [DF]2!pp! F | %3
w: 1.~From|far a- w- ay we *|come * to you, ~|
w: 2.~For|as we wa- n- dered *|far * and wide, ~|
w: 3.~Un-|der a bent when the *|night * was deep, The|
w: 4.|O ye shep- herds, what *|have * ye seen? ~|
w: 5.|“In an ox stall this *|night * we saw,” ~|
"^Slowly" [FB][GB][FA] [FA][FA][FA] | [GA][FA][=EA] [FA]2"^Tempo I" F | [DF][DF][DB] [Dd]2 [=Ec] | %6
w: ~ ~ ~ ~ ~ ~|~ ~ ~ ~ To|tell of great tid- ings|
w: ~ ~ ~ ~ ~ ~|~ ~ ~ ~ What|hap do you deem there|
w: snow in the street, and the|wind on the door, There|la- y three shep- herds|
w: ~ ~ ~ ~ ~ ~|~ ~ ~ ~ To|sta- y your sor- row|
w: ~ ~ ~ ~ ~ ~|~ ~ ~ ~ A|Babe and a maid- en|
 [=EB][EA][EG] [Fc]3!p! ||"^Chorus" [F=B]"^Slower"[FB][FB] (cd)[Fc] | %8
w: stra- nge and true,||
w: should us be- tide?||
w: tend- ing their sheep,|Min- strels and maids * stand|
w: and heal your teen?||
w: with- out a flaw:||
 [FB][FA][=EG] F3"^riten." F3 F[_EF][DF] | !fermata![CF]2"^Tempo I" z3 F | B2 B A2 A | G2 G F2 F | %12
w: ||||
w: ||||
w: forth on the floor, Stand forth on the|floor, From|far a- way we|come to you, To|
w: ||||
w: ||||
"^rall." EEE (DC)B, | F2 F !fermata!F2 F | [Bd]2 [Bd] [Af]2 [Af] | [GB]2 [GB] [^Fd]2 [Fd] | %16
w: ||||
w: ||||
w: tell of great tid- * ings|strange and true, From|far a- way we|come to you, To|
w: ||||
w: ||||
 GG[EA]!ff! [DB]2 [Ge] | [F-d]3 dcB | (d2- d"^riten."cB)!>(![EA] | B6- | [DB]3- [DB]2!>)! |] %21
w: |||||
w: |||||
w: tell of great tid- ings|strange * * *|and * * * true.|||
w: |||||
w: |||||
V:2
 F | F2 x F x2 | x5 F | x6 | x5 F | x6 | x6 || x3 F2 x | x3 F3 F3 x3 | x5 F | B2 B A2 A | %11
 G2 G F2 F | EEE DCB, | F2 F F2 F | x6 | x6 | GG x4 | x3 F3 | E3- E2 x | D3 E2 C | x5 |] %21
V:3
 [B,D] | [B,D]2 [B,D] [B,,B,][B,,B,][D,B,] | [F,B,]2 [G,B,] [B,D]2 [A,D] | %3
 [G,D][G,D][G,D] [A,D][A,^C][A,D] | [A,=E][A,D][A,^C] D2 [=CD] | B,B,[A,B,] [G,B,]2 [G,C] | %6
 [G,^C][A,C][B,C] ([A,=C][G,B,][F,A,]) || [D,_A,][D,G,][D,A,] [C,=A,]2 [C,A,] | %8
 [C,G,][C,A,][C,B,] [F,A,]3 F,3 [F,D][F,C][F,B,] | !fermata![G,B,]2 z3 F, | B,2 B, A,2 A, | %11
 G,2 G, F,2 F, | E,E,E, D,C,B,, | F,2 F, !fermata![F,,F,]2 [F,F] | (DE)[B,F] (ED)[F,C] | %15
 (B,C)[G,D] (CB,)[D,A,] | [E,G,][E,G,][C,^F,] G,2 [E,B,] | B,2 C [F,D]3 | (A,2 B, [F,C]2) [F,C] | %19
 B,3 G,2 E, | [B,,F,]3- [B,,F,]2 |] %21
V:4
 x | x6 | x6 | x6 | x3 D2 x | B,B, x4 | x6 || x6 | x6 F,3 x3 | x5 F, | B,2 B, A,2 A, | %11
 G,2 G, F,2 F, | E,E,E, (D,C,)B,, | F,2 F, x3 | B,2 F,2 x2 | G,2 D,2 x2 | x3 G,2 x | F,3- x3 | %18
 F,3- x3 | B,,6- | x5 |] %21

